app/dist/common/images/livanova.svg

<svg height="18" width="18" xmlns="http://www.w3.org/2000/svg"><path d="m0 0h18v18h-18z" fill="#6d2077"/><path d="m6 5h2v-1h-2zm0 2.002h2v-1.002h-2zm0 1.998.992-.006 1.008.006v-.998h-2zm0 2h2v-1h-2zm0 2h6v-1h-6z" fill="#fff"/></svg>

<!-- by TradingView --><svg width="18" height="18" xmlns="http://www.w3.org/2000/svg"><path fill="#6D2077" d="M0 0h18v18H0z"/><path d="M6 5h2V4H6v1zM6 7.002h2V6H6v1.002zM6 9l.992-.006L8 9v-.998H6V9zM6 11h2v-1H6v1zM6 13h6v-1H6v1z" fill="#fff"/></svg>
